X:1
T:Title
L:1/8
Q:1/4=100
M:6/8
K:C
V:1 treble nm="Church Organ, Staff"
V:1
 G c2 c B2 | A G2- G G2 | G A2- A/ z/ c2- | c e2- e e2 | G c2 c B2 | A G2- G G2 | G B2- B/ z/ A2- | %7
w: By~M.~Hornabrook * * *|||||||
 A G2- G G2 | G d2 cBA | G c2- c c2 | G e2- e/ z/ d2- | d c2- c c2 | C c2 c B2 | A G2- G G2 | %14
w: |||||||
 c e2- e/ z/ d2- | d c2- c c2 |] %16
w: ||

